X:1
T:An wasser flüssen
T:An wasser flüssen
T:Benedictus Ducis
T:Source : Trium vocum cantiones---Nürnberg---J.Petreius---1541. Editor : André Vierendeels (31/08/15).
T:Notes : Original clefs : C1, C2, F3 Editorial accidentals above the staff Original note values have been halved Original text in middle German
T:ps 137
C:Benedictus Ducis
%%score [ 1 2 3 ]
L:1/8
Q:1/4=80
M:2/2
K:F
V:1 treble nm="Discantus 1" snm="S 1"
V:2 treble nm="Discantus 2" snm="S 2"
V:3 treble-8 nm="Tenor" snm="T"
V:1
 c4 d4 | c4 A4 | c4 B4 | B4 A4- | A4 G4 | A2 B2 c4 | B2 A2 G4 |1 F8 :|2 F8 || F4 G4 | A4 B4 | %11
w: An was-|ser flüs-|sen Ba-|bi- lon|_ do|sas- sen wir|mit _ schmer-|zen,|zen,|wir hien-|gen auff|
w: Als wir|ge- dach-|ten an|Si- on,|_ do|wain- ten wir|von _ her-|zen,||||
 A4 G2 F2 | G4 F4 | z8 | z4 F4 | A2 B2 c4 | d2 A4 G2 | A2 c4 B2 | c8 | z8 | A4 c4 | d4 c4 | %22
w: mit schwe- *|ren mut,||die|or- * gel|und _ die|harp- * fen|gut,||an ir|beum der|
w: |||||||||||
 B2 A4 G2 | A8 | d4 d2 d2 | G4 c4 | B4 A4 | G4 z2 B2 | A3 G F4 | G4 E2 FE | DC C4 B,2 | C8 | %32
w: wey- * *|den,|die drin- nen|sindt in|i- rem|landt, da|mus- ten wir|vil schmach _ _|_ _ _ und|schandt|
w: ||||||||||
 z2 C2 F4 | G4 A4 | B2 c2 F2 A2 | G4 F4- | F8 |] %37
w: teg- lich|von in|lei- * * *|* den.|_|
w: |||||
V:2
 F4 F4- | F2 E2 F3 E/D/ | E2 F2 G3 F | D2 E2 F2 C2 | D2 F4 E2 | D4 CDEF | G2 F4 E2 |1 F4 z4 :|2 %8
w: An was-|* ser flüs- * *|* sen Ba- *|* bi- lon do|sas- * sen|wir mit _ _ _|_ schmer- *|zen,|
w: Als wir|_ ge- dach- * *|* ten a- *|* Si- on, do|wain- * ten|wir von _ _ _|_ her- *|zen,|
 F2 D4 C2 || D2 F4 E2 | D2 C2 G2 G2 | C3 D E2 F2- | F2 E2 F2 D2 | E2 F3 E D2- | D2 C2 D4- | %15
w: zen, wir hien-|gen auff mit|schwe- * * ren|mut, _ _ mit|_ schwe- * *||* ren mut,|
w: |||||||
 D4 z2 E2 | F6 E2 | D2 C2 D4 | C4 F2 E2- | ED D4 C2 | F3 G E4 | D2 F4 E2 | D2 C2 B,4 | %23
w: _ die|or- gel|und die harp-|fen gut, _|_ _ _ _|an ir beum|der wey- *||
w: ||||||||
 A,2 C2 D2 F2- | FD G2 F2 D2 | E6 F2 |"^#" G2 G4 F2 | G4 z2 D2 | D2 C2 D4 | E3 F G2 A2- | %30
w: den, die drin- *|* * * * nen|sindt in|i- rem _|landt, da|mus- ten wir|viel _ _ schmach|
w: |||||||
 A2 G2 F4 | E2 A4 A2 | G2 A4 GF | E4 F4 | G2 A3 G F2- | F2 E2 F4- | F8 |] %37
w: _ und _|schandt teg- lich|von in _ _|_ _|lei- * * *|* * den.|_|
w: |||||||
V:3
 F4 B4 | A4 d2 cB | A2 A2 G4 | G4 F4- | F4 c4 | F2 G2 A4 | G2 d2 B2 c2 |1 F4 z4 :|2 F2 B4 A2 || %9
w: was- ser|flüs- sen * *|* Ba- bi-|lon, do|_ sas-|sen wir mit|schmer- zen, * *|zen,|wir hien- gen|
w: Als wir|ge- dach- * *|* ten an|Si- on,|_ do|wain- ten wir|von her- * *|zen,||
 B2 d2 c4 | F4 _E4 | F4 c2 d2 | c4 F2 B2 | A3 G F2 G2 | E4 D3 E | F2 G2 A4 | D6 E2 | F2 A2 G4 | %18
w: auff mit schwe-|ren mut,|mit schwe- ren||* * * mut,|die or- _|_ gel und|die harp-|fen gut, und|
w: |||||||||
 z2 A4 A2 | G2 F2 E4 | D4 A4 | B4 A4 | z8 | A8 | B4 B4 | c4 A4 | G4 d4 | G4 z2 G2 | F3 E D4 | %29
w: die harp-|fen * gut,|an ir|beum, die||drin-|nen sindt|in i-|rem landt,|da mus-|ten wir viel|
w: |||||||||||
 C4 C2 F2- | F2 E2 D4 | C2 F4 F2 | E2 F2 D4 | C4 z2 D2 | G2 F2 D2 F2 | C4 F4- | F8 |] %37
w: schmach und schandt|_ _ _|teg- lich von|in lei- den,|teg- lich|von in lei- _|den. *||
w: ||||||||

